src/scalable/apps/etcher.svg

<svg width="64" height="64" version="1.1" xmlns="http://www.w3.org/2000/svg">
 <path d="m31.652 3.002a6.4679 6.4801 0 0 0-3.3869 0.86401l-19.032 11.01a6.4679 6.4801 0 0 0-3.2349 5.6121v22.02a6.4679 6.4801 0 0 0 3.2339 5.6131l19.032 11.01a6.4679 6.4801 0 0 0 6.4679 0l19.032-11.01a6.4679 6.4801 0 0 0 3.2349-5.6131v-22.02a6.4679 6.4801 0 0 0-3.2349-5.6131l-19.032-11.01a6.4679 6.4801 0 0 0-3.0799-0.86401z" fill="#c8f178" stroke="#aedb4d" stroke-width="2"/>
 <path d="m31.652 3.002a6.4679 6.4801 0 0 0-3.3869 0.86401l-19.032 11.01a6.4679 6.4801 0 0 0-3.2349 5.6121v22.02a6.4679 6.4801 0 0 0 3.2339 5.6131l19.032 11.01a6.4679 6.4801 0 0 0 6.4679 0l19.032-11.01a6.4679 6.4801 0 0 0 3.2349-5.6131v-22.02a6.4679 6.4801 0 0 0-3.2349-5.6131l-19.032-11.01a6.4679 6.4801 0 0 0-3.0799-0.86401z" fill="#c8f178"/>
 <path d="m31.561 9a2.573 2.573 0 0 0-1.3691 0.35547l-16.865 9.9141 18.174 10.582 18.17-10.582-16.863-9.9141a1.887 1.93 0 0 0-0.003907 0 2.555 2.555 0 0 0-1.2402-0.35352 1.887 1.93 0 0 0-0.001953 0v-0.0019531zm-19.562 12.791v19.65c0 0.877 0.55188 1.8393 1.2969 2.2773l16.789 9.8711v-21.268l-18.086-10.531zm39 0.001953-18.08 10.531v21.264l16.785-9.8691c0.745-0.438 1.2949-1.3993 1.2949-2.2773v-19.648z" fill="#86bd1f"/>
 <rect x="30" y="30" width="32" height="32" rx="16" ry="16" fill="#f9f9f9" stroke="#d1d1d1" stroke-width="2"/>
 <rect x="30" y="30" width="32" height="32" rx="16" ry="16" fill="#f9f9f9"/>
 <path d="m57.2 46a11.2 11.2 0 0 1-22.4 0 11.2 11.2 0 1 1 22.4 0" fill="#4d4d4d"/>
 <path d="M46.112 42.267a3.732 3.732 0 0 0-3.842 3.732c0 4.978 7.466 4.978 7.466 0a3.733 3.733 0 0 0-3.624-3.732zm-.109 2.985a.747.747 0 1 1 0 1.494.747.747 0 0 1 0-1.494z" fill="#fff"/>
</svg>

<svg xmlns="http://www.w3.org/2000/svg" width="64" height="64"><path fill="#c8f178" stroke="#aedb4d" stroke-width="2" d="M31.652 3.002a6.468 6.48 0 0 0-3.387.864L9.233 14.876a6.468 6.48 0 0 0-3.235 5.612v22.02a6.468 6.48 0 0 0 3.234 5.613l19.032 11.01a6.468 6.48 0 0 0 6.468 0l19.032-11.01a6.468 6.48 0 0 0 3.235-5.613v-22.02a6.468 6.48 0 0 0-3.235-5.613L34.732 3.865a6.468 6.48 0 0 0-3.08-.864z"/><path fill="#c8f178" d="M31.652 3.002a6.468 6.48 0 0 0-3.387.864L9.233 14.876a6.468 6.48 0 0 0-3.235 5.612v22.02a6.468 6.48 0 0 0 3.234 5.613l19.032 11.01a6.468 6.48 0 0 0 6.468 0l19.032-11.01a6.468 6.48 0 0 0 3.235-5.613v-22.02a6.468 6.48 0 0 0-3.235-5.613L34.732 3.865a6.468 6.48 0 0 0-3.08-.864z"/><path fill="#86bd1f" d="M31.561 9a2.573 2.573 0 0 0-1.37.355L13.328 19.27 31.5 29.852 49.67 19.27 32.808 9.355a1.887 1.93 0 0 0-.004 0 2.555 2.555 0 0 0-1.24-.353 1.887 1.93 0 0 0-.002 0V9zM11.999 21.791v19.65c0 .877.552 1.84 1.297 2.277l16.789 9.871V32.321l-18.086-10.53zm39 .002-18.08 10.531v21.264l16.785-9.87c.745-.437 1.295-1.398 1.295-2.276V21.794z"/><rect width="32" height="32" x="30" y="30" fill="#f9f9f9" stroke="#d1d1d1" stroke-width="2" rx="16" ry="16"/><rect width="32" height="32" x="30" y="30" fill="#f9f9f9" rx="16" ry="16"/><path fill="#4d4d4d" d="M57.2 46a11.2 11.2 0 0 1-22.4 0 11.2 11.2 0 1 1 22.4 0"/><path fill="#fff" d="M46.112 42.267a3.732 3.732 0 0 0-3.842 3.732c0 4.978 7.466 4.978 7.466 0a3.733 3.733 0 0 0-3.624-3.732zm-.109 2.985a.747.747 0 1 1 0 1.494.747.747 0 0 1 0-1.494z"/></svg>
